!!!COM: Sissoko, Banzoumana
!!!CDT: b.1909
!!!OTL: National Anthem, Mali
!!!ENC: Davis, Matthew J.
!!Vocal Line Only
**kern
*clefG2
*k[f#]
*G:
*M2/4
=1-
4g
=2
8.g
16g
8.g
16a
=3
4g
4e
=4
8.g
16g
8.g
16g
=5
8g
8r
4b
=6
8.b
16b
8.b
16cc
=7
4b
4g
=8
8.b
16b
8.b
16b
=9
8b
8r
4dd
=10
4.dd
8dd
=11
4ee
8dd
8b
=12
[2dd
=13
8dd]
8r
4dd
=14
8.dd
16dd
8.dd
16ee
=15
8dd
8dd
8b
8a
=16
8.g
16g
8.g
16g
=17
8g
8r
8.b
16a
=18
8.g
16g
8.f
16e
=19
4e
4e
=20
8.a
16a
8.a
16a
=21
4g
8.b
16a
=22
4g
8.f#
16e
=23
4f#
8.f#
16g
=24
4.g
8r
==!|:25
4g
8.b
16a
=26
4g
8.f#
16e
=27
4e
8.e
16e
=28
2a
=29
8.g
16g
8.b
16a
=30
8.g
16g
8.f#
16e
=31
4.f#
8g
=32
!First Ending
4.g
8r
=33
8.g
16g
8.f#
16e
=34
4g
8.b
16b
=35
4.a
8r
=36
8.g
16g
8.f#
16e
=37
8.f#
16f#
8.a
16a
=38
4g
8.g
16a
==:|!39
!Second Ending
[2g
=40
8g]
8r
!D.C.
==|!
*-
